svgs/thin/coin.svg

<svg xmlns="http://www.w3.org/2000/svg" viewBox="0 0 512 512"><!--! Font Awesome Pro 6.4.0 by @fontawesome - https://fontawesome.com License - https://fontawesome.com/license (Commercial License) Copyright 2023 Fonticons, Inc. --><path d="M256 336c68.5 0 129.7-15.6 173.2-40.1c44-24.8 66.8-56.5 66.8-87.9s-22.8-63.1-66.8-87.9C385.7 95.6 324.5 80 256 80s-129.7 15.6-173.2 40.1C38.8 144.9 16 176.6 16 208s22.8 63.1 66.8 87.9C126.3 320.4 187.5 336 256 336zM0 208C0 128.5 114.6 64 256 64s256 64.5 256 144l0 16 0 96c0 70.7-114.6 128-256 128S0 390.7 0 320l0-96 0-16zM168 343.3l0 80.7c24.8 4.7 51.8 7.5 80 8l0-80c-28-.5-54.9-3.5-80-8.7zm-16-3.6c-23.4-5.9-44.9-13.6-64-23L88 399c18.6 8.7 40.2 16 64 21.6l0-81zM16 258.2L16 320c0 24 18.2 49.5 56 70.8l0-82.7C47.7 294 28.4 277 16 258.2zM344 424l0-80.7c-25.1 5.2-52 8.2-80 8.7l0 80c28.2-.4 55.2-3.2 80-8zm16-84.3l0 81c23.8-5.5 45.4-12.8 64-21.6l0-82.4c-19.1 9.3-40.6 17.1-64 23zM496 320l0-61.8c-12.4 18.8-31.7 35.7-56 49.9l0 82.7c37.8-21.3 56-46.8 56-70.8zM256 128c-49.9 0-94.8 9.3-126.8 23.9C96.5 166.8 80 185.9 80 204s16.5 37.2 49.2 52.1c32 14.6 76.9 23.9 126.8 23.9s94.8-9.3 126.8-23.9c32.7-14.9 49.2-34 49.2-52.1s-16.5-37.2-49.2-52.1C350.8 137.3 305.9 128 256 128zm192 76c0 28.2-24.7 51.2-58.6 66.7C354.9 286.5 307.7 296 256 296s-98.9-9.5-133.4-25.3C88.7 255.2 64 232.2 64 204s24.7-51.2 58.6-66.7C157.1 121.5 204.3 112 256 112s98.9 9.5 133.4 25.3C423.3 152.8 448 175.8 448 204z"/></svg>

<svg xmlns="http://www.w3.org/2000/svg" viewBox="0 0 512 512"><!--! Font Awesome Pro 6.3.0 by @fontawesome - https://fontawesome.com License - https://fontawesome.com/license (Commercial License) Copyright 2023 Fonticons, Inc. --><path d="M389.4 270.7C354.9 286.5 307.7 296 256 296C204.3 296 157.1 286.5 122.6 270.7C88.72 255.2 64 232.2 64 204C64 175.8 88.72 152.8 122.6 137.3C157.1 121.5 204.3 112 256 112C307.7 112 354.9 121.5 389.4 137.3C423.3 152.8 448 175.8 448 204C448 232.2 423.3 255.2 389.4 270.7zM129.2 151.9C96.47 166.8 80 185.9 80 204C80 222.1 96.47 241.2 129.2 256.1C161.2 270.7 206.1 280 256 280C305.9 280 350.7 270.7 382.8 256.1C415.5 241.2 432 222.1 432 204C432 185.9 415.5 166.8 382.8 151.9C350.7 137.3 305.9 128 256 128C206.1 128 161.2 137.3 129.2 151.9V151.9zM0 208C0 128.5 114.6 64 256 64C397.4 64 512 128.5 512 208V320C512 390.7 397.4 448 256 448C114.6 448 0 390.7 0 320V208zM429.2 295.9C473.2 271.1 496 239.4 496 208C496 176.6 473.2 144.9 429.2 120.1C385.7 95.64 324.5 80 256 80C187.5 80 126.3 95.64 82.82 120.1C38.81 144.9 16 176.6 16 208C16 239.4 38.81 271.1 82.82 295.9C126.3 320.4 187.5 336 256 336C324.5 336 385.7 320.4 429.2 295.9V295.9zM168 423.1C192.8 428.7 219.8 431.5 248 431.9V351.9C219.1 351.4 193.1 348.4 168 343.3V423.1zM152 339.6C128.6 333.8 107.1 325.1 88 316.7V399C106.6 407.7 128.2 415.1 152 420.6V339.6zM16 320C16 343.1 34.25 369.5 72 390.8V308.1C47.67 293.1 28.44 277 16 258.2V320zM344 343.3C318.9 348.4 292 351.4 264 351.9V431.9C292.2 431.5 319.2 428.7 344 423.1V343.3zM360 339.6V420.6C383.8 415.1 405.4 407.7 424 399V316.7C404.9 325.1 383.4 333.8 360 339.6V339.6zM496 258.2C483.6 277 464.3 293.1 440 308.1V390.8C477.8 369.5 496 343.1 496 320V258.2z"/></svg>
